!!!OTL: Die Mordeltern
!!!OTL-incipit: Es war'n einmal zwei Bauerssoehn,
!!!ARE: Europa, Mitteleuropa, Deutschland (), Brandenburg
!!!YOR: 4, S. 308
!!    ????
!!!SCT: Q0085P
!!!TXL: @@DE
!!!YEM: Copyright 1995, estate of Helmut Schaffrath.
**kern	**text
*ICvox	*
*M4/4	*
*met(c)	*
*k[f#c#]	*
*D:	*
!LO:TX:a:t=Brandenburg	!
{4f#	Es
=1	=1
4a	war'n
4a	ein-
4b	-mal
4a	ʒwei
=2	=2
4g	Bau-
4f#	-ers-
4e}	-ſöhn,
{4f#	die
=3	=3
4g	hat-
4e	-ten
4a	Luſt
8a	in
8g	den
=4	=4
4f#	Krieg
4e	ʒu
4d}	gehn,
{4d	wollten
=5	=5
4f#	un-
4d	-ter
4a	die
4f#	Sol-
=6	=6
2f#	-daten
4e;}	gehen,
{4b	wollten
=7	=7
4.a	un-
8g	-ter
4f#	die
4e	Sol-
=8	=8
2e	-daten
4d}	gehen.
==	==
!!!AGN: Ballade, Habgier, Mord, Reue, Selbstmord
!!!ONB: ESAC (Essen Associative Code) Database: BALLADE
!!!AMT: simple quadruple
!!!AIN: vox
!!!EED: Helmut Schaffrath
!!!EEV: 1.0
!!!source: Deutsche Volkslieder mit ihren Melodien. Herausgegeben vom Deutschen Volksliedarchiv. Vierter Band. Berlin 1959.
!!!page: 308
!!!ENC: Anna Maria Matuszewska
!!!EEV: 2025/02/25
*-	*-
